brandFactory_export/2.Regular/Perdida o robo de celulares_2Regular.svg

<?xml version="1.0" encoding="UTF-8"?>
<svg width="24px" height="24px" viewBox="0 0 24 24" version="1.1" xmlns="http://www.w3.org/2000/svg" xmlns:xlink="http://www.w3.org/1999/xlink">
    <title>2.Regular/Perdida o robo de celulares_2Regular</title>
    <g id="Symbols" stroke="none" stroke-width="1" fill="none" fill-rule="evenodd">
        <g id="2.Regular/Perdida-o-robo-de-celulares_2Regular" fill="#5CB615" fill-rule="nonzero">
            <path d="M17.0857143,-9.76996262e-13 C18.4168067,-9.76996262e-13 19.3848739,0.322689076 20.0504202,0.991596639 C20.7159664,1.6605042 21.0352941,2.62521008 21.0352941,3.94957983 L21.0352941,19.6806723 C21.0352941,21.0184874 20.7092437,21.9932773 20.0436975,22.6554622 C19.3815126,23.3109244 18.4134454,23.6302521 17.0857143,23.6302521 L9.22016807,23.6302521 C7.89243697,23.6302521 6.92436975,23.3109244 6.26218487,22.6554622 C5.59327731,21.9932773 5.27058824,21.0184874 5.27058824,19.6806723 L5.27024535,15.4058293 C3.72258983,15.2987469 2.49349622,14.8140456 1.61008403,13.9630252 C0.561344538,12.9512605 0.0302521009,11.4554622 0.0302521009,9.51260504 C0.0302521009,7.5697479 0.561344538,6.07394958 1.61008403,5.06218487 C2.49503695,4.20968024 3.7268781,3.72477359 5.27834587,3.61882395 C5.32903523,2.48161016 5.65090036,1.62889883 6.25882353,1.01176471 C6.93445378,0.332773109 7.90252101,-9.76996262e-13 9.22016807,-9.76996262e-13 L17.0857143,-9.76996262e-13 Z M17.0857143,1.34453782 L9.22016807,1.34453782 C7.48563642,1.34453782 6.71273788,2.01028382 6.62386409,3.61938419 C8.17145471,3.72709734 9.39951852,4.21172105 10.2823529,5.06218487 C11.3310924,6.07394958 11.8621849,7.5697479 11.8621849,9.51260504 C11.8621849,11.4554622 11.3310924,12.9512605 10.2823529,13.9630252 C9.39759262,14.8153443 8.16609502,15.3002254 6.61510399,15.4063169 L6.61512605,19.6806723 C6.61512605,21.5798319 7.3210084,22.2857143 9.22016807,22.2857143 L17.0857143,22.2857143 C18.9848739,22.2857143 19.6907563,21.5798319 19.6907563,19.6806723 L19.6907563,3.94957983 C19.6907563,2.99831933 19.4957983,2.3394958 19.0991597,1.9394958 C18.702521,1.5394958 18.0403361,1.34453782 17.0857143,1.34453782 Z M13.1563025,18.1546218 C13.9932773,18.1546218 14.4907563,18.6554622 14.4907563,19.492437 C14.4907563,19.902521 14.3731092,20.2285714 14.1445378,20.4638655 C13.9159664,20.6991597 13.5663866,20.8302521 13.1529412,20.8302521 C12.7428571,20.8302521 12.4,20.702521 12.1680672,20.4638655 C11.9361345,20.2252101 11.8218487,19.8991597 11.8218487,19.492437 C11.8218487,18.6554622 12.3193277,18.1546218 13.1563025,18.1546218 Z M5.94621849,4.94117647 C4.43697479,4.94117647 3.29411765,5.30756303 2.54453782,6.0302521 C1.76806723,6.77647059 1.37478992,7.94957983 1.37478992,9.51260504 C1.37478992,11.0756303 1.76806723,12.2487395 2.54453782,12.994958 C3.29411765,13.7176471 4.44033613,14.0840336 5.94621849,14.0840336 C7.45210084,14.0840336 8.59831933,13.7176471 9.34789916,12.994958 C10.1243697,12.2487395 10.5176471,11.0756303 10.5176471,9.51260504 C10.5176471,7.94957983 10.1243697,6.77647059 9.34789916,6.0302521 C8.59831933,5.30756303 7.45546218,4.94117647 5.94621849,4.94117647 Z M5.61008403,12.1882353 C5.91596639,12.1882353 6.16134454,12.4336134 6.16134454,12.7394958 C6.16134454,13.0453782 5.91596639,13.2907563 5.61008403,13.2907563 C5.30420168,13.2907563 5.05882353,13.0420168 5.05882353,12.7394958 C5.05882353,12.4336134 5.30756303,12.1882353 5.61008403,12.1882353 Z M5.60672269,5.80504202 C6.39327731,5.80504202 7.06218487,6.08403361 7.49579832,6.59159664 C7.86890756,7.03193277 8.02352941,7.60672269 7.92605042,8.20504202 C7.79495798,9.01176471 7.23361345,9.50588235 6.99495798,9.71764706 C6.90084034,9.80168067 6.8,9.88235294 6.70252101,9.96302521 C6.53781513,10.097479 6.09747899,10.4537815 6.09411765,10.5815126 L6.09411765,11.1966387 C6.0907563,11.4655462 5.87563025,11.6806723 5.61008403,11.6806723 C5.34453782,11.6806723 5.12941176,11.4655462 5.12605042,11.1966387 L5.12605042,10.5815126 C5.12605042,9.99663866 5.64033613,9.57983193 6.0907563,9.21344538 C6.18487395,9.13613445 6.27563025,9.06218487 6.35630252,8.99159664 C6.53109244,8.83697479 6.89747899,8.51428571 6.97478992,8.05042017 C7.02857143,7.73109244 6.95462185,7.44201681 6.76302521,7.21680672 C6.51764706,6.92773109 6.10756303,6.7697479 5.61008403,6.7697479 C5.19327731,6.7697479 4.84369748,6.90420168 4.60504202,7.15630252 C4.37647059,7.39495798 4.25210084,7.74117647 4.25210084,8.12773109 L4.25210084,8.25882353 C4.25210084,8.52436975 4.03697479,8.74285714 3.76806723,8.74285714 C3.49915966,8.74285714 3.28403361,8.52773109 3.28403361,8.25882353 L3.28403361,8.12773109 C3.28403361,7.49579832 3.50252101,6.91428571 3.89915966,6.49411765 C4.32605042,6.04369748 4.91764706,5.80504202 5.60672269,5.80504202 Z" id="Perdida-o-robo-de-celulares_2Regular"></path>
        </g>
    </g>
</svg>

<svg width="24" height="24" viewBox="0 0 24 24" xmlns="http://www.w3.org/2000/svg"><path d="M17.086 0c1.33 0 2.299.323 2.964.992.666.669.985 1.633.985 2.958v15.73c0 1.338-.326 2.313-.991 2.975-.662.656-1.63.975-2.958.975H9.22c-1.328 0-2.296-.32-2.958-.975-.669-.662-.991-1.637-.991-2.974v-4.275c-1.548-.107-2.778-.592-3.66-1.443C.56 12.951.03 11.455.03 9.513c0-1.943.53-3.44 1.58-4.45.884-.853 2.116-1.338 3.667-1.444.051-1.137.373-1.99.98-2.607C6.935.332 7.904 0 9.22 0h7.866zm0 1.345H9.22c-1.734 0-2.507.665-2.596 2.274 1.547.108 2.776.593 3.658 1.443 1.05 1.012 1.58 2.508 1.58 4.45 0 1.943-.53 3.44-1.58 4.451-.884.852-2.116 1.337-3.667 1.443v4.275c0 1.899.706 2.605 2.605 2.605h7.866c1.899 0 2.605-.706 2.605-2.605V3.95c0-.952-.195-1.61-.592-2.01-.396-.4-1.059-.595-2.013-.595zm-3.93 16.81c.837 0 1.335.5 1.335 1.337 0 .41-.118.737-.346.972-.229.235-.579.366-.992.366-.41 0-.753-.127-.985-.366-.232-.239-.346-.565-.346-.972 0-.837.497-1.337 1.334-1.337zM5.946 4.94c-1.509 0-2.652.367-3.401 1.09-.777.745-1.17 1.919-1.17 3.482 0 1.563.393 2.736 1.17 3.482.75.723 1.895 1.089 3.401 1.089 1.506 0 2.652-.366 3.402-1.089.776-.746 1.17-1.92 1.17-3.482 0-1.563-.394-2.737-1.17-3.483-.75-.722-1.893-1.089-3.402-1.089zm-.336 7.247a.55.55 0 01.551.551.552.552 0 11-.551-.551zm-.003-6.383c.786 0 1.455.279 1.889.787.373.44.528 1.015.43 1.613-.131.807-.692 1.3-.931 1.513-.094.084-.195.164-.292.245-.165.134-.606.49-.609.619v.615a.486.486 0 01-.484.484.486.486 0 01-.484-.484v-.615c0-.585.514-1.002.965-1.369.094-.077.185-.15.265-.221.175-.155.541-.478.619-.942a.993.993 0 00-.212-.833c-.245-.29-.655-.447-1.153-.447-.417 0-.766.134-1.005.386-.229.239-.353.585-.353.972v.13a.484.484 0 01-.968 0v-.13c0-.632.219-1.214.615-1.634.427-.45 1.019-.689 1.708-.689z" fill="#5CB615" fill-rule="nonzero"/></svg>
